images/style-guide/av-icon-red.svg

<svg width="184" height="174" viewBox="0 0 184 174" xmlns="http://www.w3.org/2000/svg"><g fill="#CF352C" fill-rule="evenodd"><path d="M123.328 64.74c-8.886-15.906-27.104-25.365-46.16-22.197-13.82 2.295-25.057 10.69-31.44 21.971 1.936-1.365 3.939-2.655 6.094-3.799 10.921-5.777 24.016-8.549 36.215-5.797 12.765 2.904 21.786 12.887 25.034 25.313 1.722 6.572 1.735 14.349-2.279 20.148-3.645 5.271-10.1 8.533-16.372 9.395-7.054.96-13.459-1.479-16.153-8.405-2.416-6.25.314-14.099 7.455-15.445-5.958.072-10.379 5.762-10.826 11.342-.442 5.582 2.182 11.584 6.608 15.019 9.387 7.27 24.871 3.989 33.491-2.799 13.52-10.638 14.242-29.359 8.333-44.746"/><path d="M99.62 132.242c-25.037 4.168-48.698-12.672-52.879-37.58-4.182-24.947 12.722-48.494 37.728-52.678 25.047-4.154 48.718 12.672 52.904 37.61 4.161 24.896-12.746 48.494-37.753 52.648zM124.708.231L32.81 15.505.158 102.416 59.391 174l91.913-15.264 32.634-86.912L124.708.231z"/></g></svg>

<?xml version="1.0" encoding="UTF-8"?>
<svg width="184px" height="174px" viewBox="0 0 184 174" version="1.1" xmlns="http://www.w3.org/2000/svg" xmlns:xlink="http://www.w3.org/1999/xlink">
    <defs></defs>
    <g id="Page-1" stroke="none" stroke-width="1" fill="none" fill-rule="evenodd">
        <g id="Action-Verb-Logo" transform="translate(-57.000000, -137.000000)" fill="#CF352C">
            <g id="Group" transform="translate(57.000000, 137.000000)">
                <path d="M123.328,64.74 C114.442,48.834 96.224,39.375 77.168,42.543 C63.348,44.838 52.111,53.233 45.728,64.514 C47.664,63.149 49.667,61.859 51.822,60.715 C62.743,54.938 75.838,52.166 88.037,54.918 C100.802,57.822 109.823,67.805 113.071,80.231 C114.793,86.803 114.806,94.58 110.792,100.379 C107.147,105.65 100.692,108.912 94.42,109.774 C87.366,110.734 80.961,108.295 78.267,101.369 C75.851,95.119 78.581,87.27 85.722,85.924 C79.764,85.996 75.343,91.686 74.896,97.266 C74.454,102.848 77.078,108.85 81.504,112.285 C90.891,119.555 106.375,116.274 114.995,109.486 C128.515,98.848 129.237,80.127 123.328,64.74" id="Fill-16"></path>
                <path d="M99.62,132.242 C74.583,136.41 50.922,119.57 46.741,94.662 C42.559,69.715 59.463,46.168 84.469,41.984 C109.516,37.83 133.187,54.656 137.373,79.594 C141.534,104.49 124.627,128.088 99.62,132.242 Z M124.708,0.231 L32.81,15.505 L0.158,102.416 L59.391,174 L151.304,158.736 L183.938,71.824 L124.708,0.231 L124.708,0.231 Z" id="Fill-14"></path>
            </g>
        </g>
    </g>
</svg>
